assets/img/components/textinput-header.svg

<svg width="578" height="146" viewBox="0 0 578 146" fill="none" xmlns="http://www.w3.org/2000/svg">
<path d="M434 128.833C442.023 56.3628 503.433 0 578.001 0V145H183.425C161.651 145 144.001 127.148 144.001 105.125V84.5635C138.257 118.862 108.431 145 72.5 145C32.4596 145 4.12378e-06 112.54 0 72.5C0 32.4595 32.4596 0.00025155 72.5 0C108.43 0 138.256 26.1372 144.001 60.4355V0H434V128.833Z" fill="#286AD8"/>
<g style="mix-blend-mode:multiply" opacity="0.4">
<path d="M332.502 70.8013H241.278H191.886H187.789C185.972 70.8013 184.5 72.3092 184.5 74.1689V84.9446C184.5 86.035 185.014 86.9943 185.799 87.6097L206.247 104.523L191.886 104.424H187.789C185.973 104.424 184.5 105.931 184.5 107.791V118.566C184.5 119.657 185.014 120.616 185.799 121.231L209.455 145.125L407.812 145L406.949 144.102C405.802 142.907 404.684 141.743 403.609 140.621C377.401 113.288 335.044 72.0563 335.044 72.0563C334.441 71.2966 333.532 70.8013 332.502 70.8013Z" fill="#003BA1"/>
</g>
<path d="M332.502 70.8013H187.789C185.973 70.8013 184.5 72.309 184.5 74.1687V84.9444C184.5 86.8042 185.973 88.3119 187.789 88.3119H332.502C334.318 88.3119 335.791 86.8042 335.791 84.9444V74.1687C335.791 72.309 334.318 70.8013 332.502 70.8013Z" fill="#5187DF"/>
<path d="M332.502 104.423H187.789C185.973 104.423 184.5 105.931 184.5 107.791V118.567C184.5 120.426 185.973 121.934 187.789 121.934H332.502C334.318 121.934 335.791 120.426 335.791 118.567V107.791C335.791 105.931 334.318 104.423 332.502 104.423Z" fill="#5187DF"/>
<path d="M189.642 108.178L189.642 118.178" stroke="#194BC1" stroke-width="1.5" stroke-linecap="round"/>
<path d="M189.642 79.4655C189.642 78.305 190.53 77.3643 191.626 77.3643H254.019C255.115 77.3643 256.004 78.305 256.004 79.4655C256.004 80.6261 255.115 81.5668 254.019 81.5668H191.626C190.53 81.5668 189.642 80.6261 189.642 79.4655Z" fill="#1543B4"/>
</svg>

<svg xmlns="http://www.w3.org/2000/svg" width="578" height="146" fill="none" viewBox="0 0 578 146"><path fill="#286ad8" d="M434 128.833C442.023 56.363 503.433 0 578.001 0v145H183.425c-21.774 0-39.424-17.852-39.424-39.875V84.564C138.257 118.862 108.431 145 72.5 145 32.46 145 0 112.54 0 72.5S32.46 0 72.5 0c35.93 0 65.756 26.137 71.501 60.436V0H434z"/><path fill="#003ba1" d="M332.502 70.801H187.789c-1.817 0-3.289 1.508-3.289 3.368v10.776c0 1.09.514 2.05 1.299 2.665l20.448 16.913-14.361-.099h-4.097c-1.816 0-3.289 1.507-3.289 3.367v10.775c0 1.091.514 2.05 1.299 2.665l23.656 23.894L407.812 145l-.863-.898c-1.147-1.195-2.265-2.359-3.34-3.481-26.208-27.333-68.565-68.565-68.565-68.565-.603-.76-1.512-1.255-2.542-1.255" opacity=".4" style="mix-blend-mode:multiply"/><path fill="#5187df" d="M332.502 70.801H187.789c-1.816 0-3.289 1.508-3.289 3.368v10.775c0 1.86 1.473 3.368 3.289 3.368h144.713c1.816 0 3.289-1.508 3.289-3.368V74.17c0-1.86-1.473-3.368-3.289-3.368M332.502 104.423H187.789c-1.816 0-3.289 1.508-3.289 3.368v10.776c0 1.859 1.473 3.367 3.289 3.367h144.713c1.816 0 3.289-1.508 3.289-3.367v-10.776c0-1.86-1.473-3.368-3.289-3.368"/><path stroke="#194bc1" stroke-linecap="round" stroke-width="1.5" d="M189.642 108.178v10"/><path fill="#1543b4" d="M189.642 79.466c0-1.161.888-2.102 1.984-2.102h62.393c1.096 0 1.985.941 1.985 2.102 0 1.16-.889 2.1-1.985 2.1h-62.393c-1.096 0-1.984-.94-1.984-2.1"/></svg>
